2/images/PSW-5.svg

<svg width="323" height="282" viewBox="0 0 323 282" fill="none" xmlns="http://www.w3.org/2000/svg">
<g id="PSW-5">
<g id="Group 5">
<path id="Stroke 1" d="M1.86697 248.43V33.5693" stroke="#B2B2B2" stroke-width="2" stroke-linecap="round" stroke-linejoin="round"/>
<path id="Stroke 3" d="M249.533 280.881H34.3633" stroke="#B2B2B2" stroke-width="2" stroke-linecap="round" stroke-linejoin="round"/>
</g>
<path id="Stroke 6" d="M282.031 208.196V248.43" stroke="#B2B2B2" stroke-width="2" stroke-linecap="round" stroke-linejoin="round"/>
<path id="Stroke 7" d="M282.031 33.5693V74.2445" stroke="#B2B2B2" stroke-width="2" stroke-linecap="round" stroke-linejoin="round"/>
<g id="Group 70">
<path id="Stroke 8" d="M34.3652 1.11909H249.535" stroke="#B2B2B2" stroke-width="2" stroke-linecap="round" stroke-linejoin="round"/>
<path id="Stroke 10" d="M276.429 196.952V270.81C276.429 273.282 274.423 275.286 271.946 275.286H11.9533C9.4778 275.286 7.4707 273.282 7.4707 270.81V11.191C7.4707 8.71906 9.4778 6.71484 11.9533 6.71484H271.946C274.423 6.71484 276.429 8.71906 276.429 11.191V85.0482" stroke="#1A1A1A" stroke-width="2" stroke-linecap="round" stroke-linejoin="round"/>
<path id="Stroke 12" fill-rule="evenodd" clip-rule="evenodd" d="M321.254 141C321.254 165.721 301.186 185.762 276.428 185.762C251.671 185.762 231.602 165.721 231.602 141C231.602 116.278 251.671 96.2383 276.428 96.2383C301.186 96.2383 321.254 116.278 321.254 141Z" stroke="#1A1A1A" stroke-width="2" stroke-linecap="round" stroke-linejoin="round"/>
<path id="Stroke 14" d="M276.429 126.54V146.244" stroke="black" stroke-width="2" stroke-linecap="round" stroke-linejoin="round"/>
<path id="Fill 16" fill-rule="evenodd" clip-rule="evenodd" d="M278.31 153.581C278.31 154.62 277.467 155.461 276.427 155.461C275.39 155.461 274.547 154.62 274.547 153.581C274.547 152.544 275.39 151.702 276.427 151.702C277.467 151.702 278.31 152.544 278.31 153.581Z" fill="black"/>
<path id="Stroke 18" d="M77.5117 55.6728H190.704" stroke="#B2B2B2" stroke-width="2" stroke-linecap="round" stroke-linejoin="round"/>
<path id="Stroke 20" d="M77.5117 41.6845H213.115" stroke="#B2B2B2" stroke-width="2" stroke-linecap="round" stroke-linejoin="round"/>
<path id="Stroke 22" fill-rule="evenodd" clip-rule="evenodd" d="M63.5028 48.679C63.5028 56.4038 57.2316 62.6671 49.4946 62.6671C41.7587 62.6671 35.4863 56.4038 35.4863 48.679C35.4863 40.9542 41.7587 34.6909 49.4946 34.6909C57.2316 34.6909 63.5028 40.9542 63.5028 48.679Z" stroke="#B2B2B2" stroke-width="2" stroke-linecap="round" stroke-linejoin="round"/>
<path id="Stroke 24" d="M77.5117 111.625H213.115" stroke="#B2B2B2" stroke-width="2" stroke-linecap="round" stroke-linejoin="round"/>
<path id="Stroke 26" d="M77.5117 97.6372H190.704" stroke="#B2B2B2" stroke-width="2" stroke-linecap="round" stroke-linejoin="round"/>
<path id="Stroke 28" fill-rule="evenodd" clip-rule="evenodd" d="M63.5028 104.631C63.5028 112.356 57.2316 118.619 49.4946 118.619C41.7587 118.619 35.4863 112.356 35.4863 104.631C35.4863 96.9064 41.7587 90.6431 49.4946 90.6431C57.2316 90.6431 63.5028 96.9064 63.5028 104.631Z" stroke="#B2B2B2" stroke-width="2" stroke-linecap="round" stroke-linejoin="round"/>
<path id="Stroke 30" d="M77.5117 167.578H213.115" stroke="#B2B2B2" stroke-width="2" stroke-linecap="round" stroke-linejoin="round"/>
<path id="Stroke 32" d="M77.5117 153.589H190.704" stroke="#B2B2B2" stroke-width="2" stroke-linecap="round" stroke-linejoin="round"/>
<path id="Stroke 34" fill-rule="evenodd" clip-rule="evenodd" d="M63.5028 160.584C63.5028 168.309 57.2316 174.572 49.4946 174.572C41.7587 174.572 35.4863 168.309 35.4863 160.584C35.4863 152.859 41.7587 146.596 49.4946 146.596C57.2316 146.596 63.5028 152.859 63.5028 160.584Z" stroke="#B2B2B2" stroke-width="2" stroke-linecap="round" stroke-linejoin="round"/>
<path id="Stroke 36" d="M49.4959 228.562V248.43" stroke="#B2B2B2" stroke-width="2" stroke-linecap="round" stroke-linejoin="round"/>
<path id="Stroke 38" d="M60.701 217.373V248.43" stroke="#B2B2B2" stroke-width="2" stroke-linecap="round" stroke-linejoin="round"/>
<path id="Stroke 40" d="M71.908 206.183V248.43" stroke="#B2B2B2" stroke-width="2" stroke-linecap="round" stroke-linejoin="round"/>
<path id="Stroke 42" d="M83.1131 211.778V248.43" stroke="#B2B2B2" stroke-width="2" stroke-linecap="round" stroke-linejoin="round"/>
<path id="Stroke 44" d="M94.3201 222.967V248.43" stroke="#B2B2B2" stroke-width="2" stroke-linecap="round" stroke-linejoin="round"/>
<path id="Stroke 46" d="M105.525 211.778V248.43" stroke="#B2B2B2" stroke-width="2" stroke-linecap="round" stroke-linejoin="round"/>
<path id="Stroke 48" d="M116.73 222.967V248.43" stroke="#B2B2B2" stroke-width="2" stroke-linecap="round" stroke-linejoin="round"/>
<path id="Stroke 50" d="M127.937 234.158V248.43" stroke="#B2B2B2" stroke-width="2" stroke-linecap="round" stroke-linejoin="round"/>
<path id="Stroke 52" d="M204.152 211.778H234.613" stroke="#B2B2B2" stroke-width="2" stroke-linecap="round" stroke-linejoin="round"/>
<path id="Stroke 54" d="M169.961 211.778H190.703" stroke="#B2B2B2" stroke-width="2" stroke-linecap="round" stroke-linejoin="round"/>
<path id="Stroke 56" d="M225.441 227.307H234.612" stroke="#B2B2B2" stroke-width="2" stroke-linecap="round" stroke-linejoin="round"/>
<path id="Stroke 58" d="M169.961 227.307H211.994" stroke="#B2B2B2" stroke-width="2" stroke-linecap="round" stroke-linejoin="round"/>
<path id="Stroke 60" d="M194.938 242.836H234.612" stroke="#B2B2B2" stroke-width="2" stroke-linecap="round" stroke-linejoin="round"/>
<path id="Stroke 62" d="M169.961 242.836H181.488" stroke="#B2B2B2" stroke-width="2" stroke-linecap="round" stroke-linejoin="round"/>
<path id="Stroke 64" fill-rule="evenodd" clip-rule="evenodd" d="M191.574 246.193H184.85C182.994 246.193 181.488 244.689 181.488 242.836C181.488 240.981 182.994 239.479 184.85 239.479H191.574C193.431 239.479 194.936 240.981 194.936 242.836C194.936 244.689 193.431 246.193 191.574 246.193Z" stroke="#B2B2B2" stroke-width="2" stroke-linecap="round" stroke-linejoin="round"/>
<path id="Stroke 66" fill-rule="evenodd" clip-rule="evenodd" d="M222.08 230.664H215.356C213.5 230.664 211.994 229.161 211.994 227.307C211.994 225.453 213.5 223.95 215.356 223.95H222.08C223.937 223.95 225.442 225.453 225.442 227.307C225.442 229.161 223.937 230.664 222.08 230.664Z" stroke="#B2B2B2" stroke-width="2" stroke-linecap="round" stroke-linejoin="round"/>
<path id="Stroke 68" fill-rule="evenodd" clip-rule="evenodd" d="M200.789 215.135H194.065C192.208 215.135 190.703 213.632 190.703 211.778C190.703 209.924 192.208 208.421 194.065 208.421H200.789C202.645 208.421 204.151 209.924 204.151 211.778C204.151 213.632 202.645 215.135 200.789 215.135Z" stroke="#B2B2B2" stroke-width="2" stroke-linecap="round" stroke-linejoin="round"/>
</g>
</g>
</svg>

<svg width="323" height="282" fill="none" xmlns="http://www.w3.org/2000/svg"><g stroke="#B2B2B2" stroke-width="2" stroke-linecap="round" stroke-linejoin="round"><path d="M1.87 248.43V33.57M249.53 280.88H34.36"/></g><path d="M282.03 208.2v40.23M282.03 33.57v40.67M34.37 1.12h215.17" stroke="#B2B2B2" stroke-width="2" stroke-linecap="round" stroke-linejoin="round"/><path d="M276.43 196.95v73.86c0 2.47-2 4.48-4.48 4.48h-260c-2.47 0-4.48-2-4.48-4.48V11.19c0-2.47 2-4.48 4.48-4.48h260c2.47 0 4.48 2 4.48 4.48v73.86" stroke="#1A1A1A" stroke-width="2" stroke-linecap="round" stroke-linejoin="round"/><path clip-rule="evenodd" d="M321.25 141a44.8 44.8 0 01-44.82 44.76A44.8 44.8 0 01231.6 141a44.8 44.8 0 0144.83-44.76A44.8 44.8 0 01321.25 141z" stroke="#1A1A1A" stroke-width="2" stroke-linecap="round" stroke-linejoin="round"/><path d="M276.43 126.54v19.7" stroke="#000" stroke-width="2" stroke-linecap="round" stroke-linejoin="round"/><path fill-rule="evenodd" clip-rule="evenodd" d="M278.31 153.58a1.88 1.88 0 11-3.76 0 1.88 1.88 0 013.76 0z" fill="#000"/><path d="M77.51 55.67h113.2M77.51 41.68h135.6" stroke="#B2B2B2" stroke-width="2" stroke-linecap="round" stroke-linejoin="round"/><path clip-rule="evenodd" d="M63.5 48.68a14 14 0 11-28-.02 14 14 0 0128 .02z" stroke="#B2B2B2" stroke-width="2" stroke-linecap="round" stroke-linejoin="round"/><path d="M77.51 111.63h135.6M77.51 97.64h113.2" stroke="#B2B2B2" stroke-width="2" stroke-linecap="round" stroke-linejoin="round"/><path clip-rule="evenodd" d="M63.5 104.63a14 14 0 11-28-.02 14 14 0 0128 .02z" stroke="#B2B2B2" stroke-width="2" stroke-linecap="round" stroke-linejoin="round"/><path d="M77.51 167.58h135.6M77.51 153.59h113.2" stroke="#B2B2B2" stroke-width="2" stroke-linecap="round" stroke-linejoin="round"/><path clip-rule="evenodd" d="M63.5 160.58a14 14 0 11-28-.02 14 14 0 0128 .02z" stroke="#B2B2B2" stroke-width="2" stroke-linecap="round" stroke-linejoin="round"/><path d="M49.5 228.56v19.87M60.7 217.37v31.06M71.9 206.18v42.25M83.11 211.78v36.65M94.32 222.97v25.46M105.53 211.78v36.65M116.73 222.97v25.46M127.94 234.16v14.27M204.15 211.78h30.46M169.96 211.78h20.74M225.44 227.3h9.17M169.96 227.3H212M194.94 242.84h39.67M169.96 242.84h11.53" stroke="#B2B2B2" stroke-width="2" stroke-linecap="round" stroke-linejoin="round"/><path clip-rule="evenodd" d="M191.57 246.2h-6.72a3.36 3.36 0 110-6.72h6.72a3.36 3.36 0 110 6.71zM222.08 230.66h-6.72a3.36 3.36 0 110-6.71h6.72a3.36 3.36 0 110 6.71zM200.79 215.13h-6.72a3.36 3.36 0 110-6.7h6.72a3.36 3.36 0 110 6.7z" stroke="#B2B2B2" stroke-width="2" stroke-linecap="round" stroke-linejoin="round"/></svg>
